svgs/duotone/chess-rook.svg

<svg xmlns="http://www.w3.org/2000/svg" viewBox="0 0 448 512"><!--! Font Awesome Pro 6.6.0 by @fontawesome - https://fontawesome.com License - https://fontawesome.com/license (Commercial License) Copyright 2024 Fonticons, Inc. --><defs><style>.fa-secondary{opacity:.4}</style></defs><path class="fa-secondary" d="M32 489.4C32 501.9 42.1 512 54.6 512l338.7 0c12.5 0 22.6-10.1 22.6-22.6c0-6-2.4-11.8-6.6-16L368 432 80 432 38.6 473.4c-4.2 4.2-6.6 10-6.6 16z"/><path class="fa-primary" d="M32 48l0 144c0 10.1 4.7 19.6 12.8 25.6L96 256 80 432l288 0L352 256l51.2-38.4c8.1-6 12.8-15.5 12.8-25.6l0-144c0-8.8-7.2-16-16-16l-64 0c-8.8 0-16 7.2-16 16l0 40c0 4.4-3.6 8-8 8l-32 0c-4.4 0-8-3.6-8-8l0-40c0-8.8-7.2-16-16-16l-64 0c-8.8 0-16 7.2-16 16l0 40c0 4.4-3.6 8-8 8l-32 0c-4.4 0-8-3.6-8-8l0-40c0-8.8-7.2-16-16-16L48 32c-8.8 0-16 7.2-16 16zM192 304l0-48c0-17.7 14.3-32 32-32s32 14.3 32 32l0 48c0 8.8-7.2 16-16 16l-32 0c-8.8 0-16-7.2-16-16z"/></svg>

<svg xmlns="http://www.w3.org/2000/svg" viewBox="0 0 448 512"><!--! Font Awesome Pro 6.4.0 by @fontawesome - https://fontawesome.com License - https://fontawesome.com/license (Commercial License) Copyright 2023 Fonticons, Inc. --><defs><style>.fa-secondary{opacity:.4}</style></defs><path class="fa-primary" d="M32 48V192c0 10.1 4.7 19.6 12.8 25.6L96 256 80 432H368L352 256l51.2-38.4c8.1-6 12.8-15.5 12.8-25.6V48c0-8.8-7.2-16-16-16H336c-8.8 0-16 7.2-16 16V88c0 4.4-3.6 8-8 8H280c-4.4 0-8-3.6-8-8V48c0-8.8-7.2-16-16-16H192c-8.8 0-16 7.2-16 16V88c0 4.4-3.6 8-8 8H136c-4.4 0-8-3.6-8-8V48c0-8.8-7.2-16-16-16H48c-8.8 0-16 7.2-16 16zM192 304V256c0-17.7 14.3-32 32-32s32 14.3 32 32v48c0 8.8-7.2 16-16 16H208c-8.8 0-16-7.2-16-16z"/><path class="fa-secondary" d="M368 432H80L38.6 473.4c-4.2 4.2-6.6 10-6.6 16C32 501.9 42.1 512 54.6 512H393.4c12.5 0 22.6-10.1 22.6-22.6c0-6-2.4-11.8-6.6-16L368 432z"/></svg>
